frontend/public/images/svgs/menu.svg

<?xml version="1.0" encoding="utf-8"?>
<!-- Generator: Adobe Illustrator 16.0.1, SVG Export Plug-In . SVG Version: 6.00 Build 0)  -->
<!DOCTYPE svg PUBLIC "-//W3C//DTD SVG 1.1//EN" "http://www.w3.org/Graphics/SVG/1.1/DTD/svg11.dtd">
<svg version="1.1" id="Layer_1" xmlns="http://www.w3.org/2000/svg" xmlns:xlink="http://www.w3.org/1999/xlink" x="0px" y="0px"
	 width="18px" height="18px" viewBox="0 1.5 18 18" enable-background="new 0 1.5 18 18" xml:space="preserve">
<g>
	<path fill="#FFFFFF" d="M0,4.5h18v2H0V4.5z M0,9.5h18v2H0V9.5z M0,14.5h18v2H0V14.5z"/>
</g>
</svg>

<svg xmlns="http://www.w3.org/2000/svg" width="18" height="18" viewBox="0 1.5 18 18" enable-background="new 0 1.5 18 18"><path fill="#fff" d="M0 4.5h18v2h-18v-2zm0 5h18v2h-18v-2zm0 5h18v2h-18v-2z"/></svg>
